.local/share/icons/Gruvbox-Plus-Dark/actions/16/outbox.svg

<svg xmlns="http://www.w3.org/2000/svg" width="16" height="16" viewBox="0 0 16 16">
 <defs>
  <style id="current-color-scheme" type="text/css">
   .ColorScheme-Text { color:#ebdbb2; } .ColorScheme-Highlight { color:#458588; }
  </style>
 </defs>
 <path style="fill:currentColor" class="ColorScheme-Text" d="M 1.9980469 0.99414062 L 2 1 C 0.9688 1.0625 1 2 1 2 L 1 14 C 1 14 0.9688 14.9375 2 15 L 14 15 C 15 15 15 14 15 14 L 15 2 C 15 2 15 1 14 1 L 8.46875 1 L 8.78125 1.375 L 10.09375 3 L 13 3 L 13 10 L 10 10 C 10 11.108 9.108 12 8 12 C 6.892 12 6 11.108 6 10 L 3 10 L 3 3 L 5.90625 3 L 7.21875 1.375 L 7.5292969 0.99414062 L 1.9980469 0.99414062 z M 8 2 L 4 7 L 6 7 L 6 9 L 10 9 L 10 7 L 12 7 L 8 2 z"/>
</svg>

<svg width="16" height="16" version="1.1" xmlns="http://www.w3.org/2000/svg">
  <defs>
    <style id="current-color-scheme" type="text/css">.ColorScheme-Text { color:#ebdbb2; } .ColorScheme-Highlight { color:#458588; }</style>
  </defs>
  <path class="ColorScheme-Text" d="m1.998 0.9941 0.001953 0.005859c-1.031 0.0625-1 1-1 1v12s-0.0312 0.9375 1 1h12c1 0 1-1 1-1v-12s0-1-1-1h-5.531l0.3125 0.375 1.312 1.625h2.906v7h-3c0 1.108-0.892 2-2 2s-2-0.892-2-2h-3v-7h2.906l1.312-1.625 0.3105-0.3809h-5.531zm6.002 1.006-4 5h2v2h4v-2h2l-4-5z" fill="currentColor"/>
</svg>
